assets/bloomberg-color.svg

<?xml version="1.0" encoding="UTF-8" standalone="no"?>
<svg width="248px" height="50px" viewBox="0 0 248 50" version="1.1" xmlns="http://www.w3.org/2000/svg" xmlns:xlink="http://www.w3.org/1999/xlink" xmlns:sketch="http://www.bohemiancoding.com/sketch/ns">
    <!-- Generator: Sketch 3.3.3 (12072) - http://www.bohemiancoding.com/sketch -->
    <title>Imported Layers Copy 2</title>
    <desc>Created with Sketch.</desc>
    <defs></defs>
    <g id="Page-1" stroke="none" stroke-width="1" fill="none" fill-rule="evenodd" sketch:type="MSPage">
        <g id="About---Desktop" sketch:type="MSArtboardGroup" transform="translate(-468.000000, -1576.000000)" fill="#000000">
            <g id="Imported-Layers-+-Imported-Layers-Copy-2-+-Imported-Layers-Copy-3" sketch:type="MSLayerGroup" transform="translate(225.000000, 1555.000000)">
                <g id="Imported-Layers-Copy-2" transform="translate(243.000000, 21.000000)" sketch:type="MSShapeGroup">
                    <path d="M0.262350814,0.9659375 C3.18018083,0.9659375 6.01400844,0.9465625 8.8475226,0.9715625 C11.3528632,0.99375 13.8685473,0.938125 16.3607233,1.145625 C19.6850874,1.4221875 22.6866064,2.54875 24.5142857,5.571875 C26.7036769,9.1928125 26.3488608,15.4246875 20.552381,17.7765625 C20.2887764,17.88375 20.034575,18.0140625 19.6035925,18.2134375 C20.1333092,18.3425 20.4705726,18.4159375 20.802821,18.506875 C25.3718626,19.7584375 27.8173357,23.9684375 27.1841832,28.60875 C26.5350452,33.3675 23.2968776,35.8734375 18.7798674,36.89625 C17.1662688,37.2615625 15.4780711,37.4184375 13.8199638,37.448125 C9.61075347,37.52375 5.39934901,37.4734375 1.18888487,37.4734375 L0.262350814,37.4734375 L0.262350814,0.9659375 L0.262350814,0.9659375 Z M6.8424352,31.7878125 C7.08503918,31.8090625 7.23016275,31.833125 7.37497288,31.8325 C9.55119952,31.8259375 11.7299337,31.8709375 13.9030259,31.78375 C14.991296,31.7403125 16.1033876,31.5671875 17.1458951,31.25625 C19.7637613,30.475625 20.775865,28.8209375 20.6404581,25.805 C20.546739,23.7240625 19.1641471,22.09 16.6515973,21.8334375 C13.4638939,21.508125 10.2360699,21.574375 7.02517179,21.4765625 C6.97815552,21.475 6.92957203,21.5325 6.8424352,21.5871875 L6.8424352,31.7878125 L6.8424352,31.7878125 Z M6.84713683,15.77625 C8.89610609,15.77625 10.8579385,15.7809375 12.8200844,15.7734375 C13.3560699,15.77125 13.9005184,15.785 14.4261603,15.7 C15.8893068,15.4628125 17.2916456,15.0425 18.2683303,13.82875 C19.7719108,11.960625 19.6449668,7.9646875 15.6833755,7.0303125 C12.776516,6.3446875 9.82702833,6.74 6.84713683,6.6375 L6.84713683,15.77625 L6.84713683,15.77625 Z" id="Fill-1"></path>
                    <path d="M241.368077,16.3875 L241.368077,12.7675 L247.316576,12.7675 L247.316576,13.6778125 C247.316576,20.9725 247.37425,28.2678125 247.277709,35.56125 C247.252321,37.4640625 246.942954,39.415625 246.424834,41.249375 C245.041615,46.145625 241.554262,48.815625 236.632285,49.56125 C233.039614,50.1053125 229.438481,49.9434375 225.955202,48.715 C224.043207,48.0409375 222.029343,46.8375 220.953611,45.6925 C222.169451,44.03875 223.396576,42.37 224.662881,40.6475 C225.177239,41.055 225.649283,41.44875 226.141386,41.81625 C229.175817,44.0825 232.562242,44.71875 236.210392,43.82375 C238.857408,43.1746875 240.586667,40.9975 240.862182,38.1375 C240.980976,36.904375 241.026112,35.664375 241.116383,34.248125 C240.361302,34.8990625 239.805883,35.4690625 239.164268,35.91625 C235.10739,38.744375 228.614129,38.3375 224.903291,35.0671875 C221.353562,31.9384375 220.107004,27.975625 220.580615,23.37125 C220.924461,20.0253125 222.159421,17.1196875 224.7566,14.8790625 C227.16352,12.8028125 230.014274,12.0559375 233.129885,12.1321875 C235.856203,12.1990625 238.287257,13.0128125 240.22088,15.01625 C240.580084,15.38875 240.888198,15.8103125 241.368077,16.3875 L241.368077,16.3875 Z M241.298493,25.0090625 C241.322001,20.6853125 238.429247,17.763125 234.103122,17.7403125 C229.819313,17.718125 226.740374,20.7434375 226.715612,25 C226.692731,28.896875 229.883568,32.1115625 233.796263,32.1334375 C238.334901,32.15875 241.274671,29.366875 241.298493,25.0090625 L241.298493,25.0090625 Z" id="Fill-2"></path>
                    <path d="M134.428306,37.4034375 C134.428306,32.65125 134.438336,27.98 134.417649,23.3084375 C134.414515,22.5715625 134.346811,21.818125 134.18006,21.101875 C133.796407,19.4515625 132.888993,18.21625 131.115539,17.883125 C129.111392,17.5065625 127.291863,17.8565625 125.958168,19.54 C124.873972,20.9084375 124.58874,22.551875 124.57965,24.239375 C124.558023,28.2884375 124.572441,32.3375 124.572441,36.386875 L124.572441,37.4128125 L118.305485,37.4128125 L118.305485,36.4115625 C118.305485,31.766875 118.317083,27.1221875 118.292321,22.4775 C118.288873,21.8046875 118.196094,21.106875 117.999879,20.4646875 C117.304352,18.1903125 115.160096,17.2346875 112.473586,17.9434375 C110.341869,18.5059375 108.732031,20.276875 108.64991,22.5784375 C108.501338,26.739375 108.527981,30.9065625 108.484726,35.0709375 C108.476576,35.8371875 108.483472,36.60375 108.483472,37.420625 L102.274816,37.420625 L102.274816,12.761875 L108.212972,12.761875 L108.212972,16.1371875 C110.108981,13.2653125 112.767908,12.061875 116.075347,12.1171875 C119.388113,12.1725 122.071802,13.3196875 123.582592,16.573125 C124.585919,15.0015625 125.765401,13.730625 127.422881,12.9665625 C130.45355,11.5690625 135.737866,11.7553125 138.185533,14.5475 C139.574081,16.13125 140.42006,17.9934375 140.482435,20.033125 C140.651694,25.5628125 140.640096,31.0978125 140.69965,36.6309375 C140.702158,36.865 140.699964,37.099375 140.699964,37.4034375 L134.428306,37.4034375" id="Fill-3"></path>
                    <path d="M151.942495,15.6053125 C153.489331,14.144375 155.126124,13.056875 157.113032,12.5296875 C163.90657,10.7271875 170.484774,14.60125 172.018445,21.436875 C173.000145,25.811875 172.534997,30.0240625 169.727185,33.7121875 C167.72868,36.3365625 164.986377,37.6975 161.703701,38.0146875 C158.591851,38.3153125 155.698469,37.821875 153.258011,35.719375 C152.700398,35.23875 152.24434,34.6409375 151.65695,34.005625 L151.65695,37.418125 L145.732586,37.418125 L145.732586,0.2178125 L151.942495,0.2178125 L151.942495,15.6053125 L151.942495,15.6053125 Z M166.1505,25.155625 C166.151127,20.8675 163.084099,17.7025 158.922218,17.745625 C154.781965,17.7884375 151.709295,20.7303125 151.719638,25.11 C151.730295,29.5965625 154.871609,32.4375 158.918143,32.475625 C163.044605,32.514375 166.149873,29.3490625 166.1505,25.155625 L166.1505,25.155625 Z" id="Fill-4"></path>
                    <path d="M54.9172031,12.1059375 C61.4157926,12.0771875 66.5277155,15.5709375 68.1757926,21.0421875 C70.4733213,28.6690625 66.3675467,36.630625 57.4867993,37.965625 C51.453044,38.8728125 45.6948041,36.173125 43.1922845,31.198125 C39.514358,23.8871875 42.8506329,13.985625 52.6742134,12.346875 C53.5239542,12.205 54.389994,12.1609375 54.9172031,12.1059375 L54.9172031,12.1059375 Z M55.2604219,32.48125 C59.3530319,32.4946875 62.4918385,29.3309375 62.531959,25.151875 C62.5717661,20.9746875 59.3818686,17.728125 55.2497649,17.7403125 C51.1678119,17.7521875 48.0625437,20.894375 48.0509464,25.0234375 C48.039349,29.2940625 51.1070042,32.4671875 55.2604219,32.48125 L55.2604219,32.48125 Z" id="Fill-5"></path>
                    <path d="M84.5763231,38.1340625 C80.8507535,37.959375 77.5373599,36.795 74.9596142,34.0340625 C71.4779024,30.3053125 70.730657,25.855 72.107607,21.104375 C73.4447498,16.491875 76.723038,13.655 81.3535142,12.570625 C86.2040265,11.434375 90.7298131,12.2353125 94.5422061,15.66125 C96.924991,17.8025 98.1458469,20.5446875 98.4486317,23.7190625 C98.7974925,27.374375 97.9464979,30.6796875 95.5518023,33.5071875 C93.0405063,36.4725 89.7311875,37.8290625 85.9087643,38.074375 C85.4652441,38.103125 85.0204702,38.1146875 84.5763231,38.1340625 L84.5763231,38.1340625 Z M77.79783,25.1478125 C77.8044123,29.3328125 80.915009,32.485625 85.0333213,32.4809375 C89.1218565,32.4765625 92.2732007,29.275 92.2785292,25.1203125 C92.2838577,20.969375 89.138469,17.759375 85.0474262,17.7403125 C80.8889934,17.72125 77.7912477,20.8865625 77.79783,25.1478125 L77.79783,25.1478125 Z" id="Fill-6"></path>
                    <path d="M200.493695,27.2859375 L181.684364,27.2859375 C181.355877,28.8415625 182.725618,31.1278125 184.549849,32.1778125 C187.630356,33.95125 190.923689,33.1925 194.795949,29.780625 C196.245618,30.8765625 197.706257,31.980625 199.204822,33.1134375 C197.224183,35.5790625 194.818831,37.2246875 191.811043,37.785625 C187.118192,38.6603125 182.795515,37.8334375 179.147366,34.5559375 C176.980856,32.61 175.743074,30.12875 175.328077,27.2878125 C174.797107,23.655625 175.432767,20.228125 177.707414,17.25625 C180.172007,14.03625 183.536805,12.45625 187.549801,12.169375 C190.362001,11.968125 193.028764,12.40625 195.378951,14.0628125 C198.067655,15.9575 199.454322,18.6753125 199.987486,21.823125 C200.28651,23.589375 200.327571,25.3990625 200.493695,27.2859375 L200.493695,27.2859375 Z M181.587511,22.561875 L194.042749,22.561875 C193.932104,18.9346875 191.438674,16.7046875 187.674864,16.8028125 C184.075298,16.896875 181.730127,19.3953125 181.587511,22.561875 L181.587511,22.561875 Z" id="Fill-7"></path>
                    <path d="M31.4460518,0.215 L37.6462447,0.215 L37.6462447,37.413125 L31.4460518,37.413125 L31.4460518,0.215" id="Fill-8"></path>
                    <path d="M210.58182,37.4340625 L204.369403,37.4340625 L204.369403,12.760625 L210.545461,12.760625 L210.545461,16.1171875 C211.595805,15.161875 212.57437,14.0371875 213.771404,13.2375 C215.554575,12.04625 217.6095,11.8665625 219.695455,12.3653125 C219.912357,12.4171875 220.227993,12.70875 220.232068,12.895 C220.272502,14.733125 220.256516,16.5721875 220.256516,18.488125 C219.515853,18.356875 218.877058,18.2365625 218.23607,18.13125 C213.947245,17.4275 210.587776,20.2509375 210.583074,24.5675 C210.578373,28.82 210.58182,33.0721875 210.58182,37.4340625" id="Fill-9"></path>
                </g>
            </g>
        </g>
    </g>
</svg>

<?xml version="1.0" encoding="UTF-8" standalone="no"?>
<svg
   width="300"
   height="90"
   viewBox="0 0 300 90"
   version="1.1"
   id="svg1936"
   sodipodi:docname="bloomberg-color.svg"
   inkscape:version="1.1.1 (3bf5ae0d25, 2021-09-20)"
   xmlns:inkscape="http://www.inkscape.org/namespaces/inkscape"
   xmlns:sodipodi="http://sodipodi.sourceforge.net/DTD/sodipodi-0.dtd"
   xmlns="http://www.w3.org/2000/svg"
   xmlns:svg="http://www.w3.org/2000/svg"
   xmlns:rdf="http://www.w3.org/1999/02/22-rdf-syntax-ns#"
   xmlns:cc="http://creativecommons.org/ns#"
   xmlns:dc="http://purl.org/dc/elements/1.1/"
   xmlns:sketch="http://www.bohemiancoding.com/sketch/ns">
  <sodipodi:namedview
     id="namedview1938"
     pagecolor="#ffffff"
     bordercolor="#666666"
     borderopacity="1.0"
     inkscape:pageshadow="2"
     inkscape:pageopacity="0.0"
     inkscape:pagecheckerboard="0"
     showgrid="false"
     inkscape:zoom="1.5827495"
     inkscape:cx="78.976488"
     inkscape:cy="-19.270263"
     inkscape:window-width="1866"
     inkscape:window-height="1016"
     inkscape:window-x="54"
     inkscape:window-y="27"
     inkscape:window-maximized="1"
     inkscape:current-layer="svg1936" />
  <!-- Generator: Sketch 3.3.3 (12072) - http://www.bohemiancoding.com/sketch -->
  <title
     id="title1917">Imported Layers Copy 2</title>
  <desc
     id="desc1919">Created with Sketch.</desc>
  <defs
     id="defs1921" />
  <g
     id="Page-1"
     stroke="none"
     stroke-width="1"
     fill="none"
     fill-rule="evenodd"
     sketch:type="MSPage"
     transform="matrix(1.2029979,0,0,1.2029979,1.0712493,14.881353)">
    <g
       id="About---Desktop"
       sketch:type="MSArtboardGroup"
       transform="translate(-468,-1576)"
       fill="#000000">
      <g
         id="Imported-Layers-+-Imported-Layers-Copy-2-+-Imported-Layers-Copy-3"
         sketch:type="MSLayerGroup"
         transform="translate(225,1555)">
        <g
           id="Imported-Layers-Copy-2"
           transform="translate(243,21)"
           sketch:type="MSShapeGroup">
          <path
             d="m 0.26235081,0.9659375 c 2.91782999,0 5.75165759,-0.019375 8.58517179,0.005625 C 11.352863,0.99375 13.868547,0.938125 16.360723,1.145625 c 3.324364,0.2765625 6.325883,1.403125 8.153563,4.42625 2.189391,3.6209375 1.834575,9.852812 -3.961905,12.204687 -0.263605,0.107188 -0.517806,0.237501 -0.948788,0.436876 0.529716,0.129062 0.86698,0.202499 1.199228,0.293437 4.569042,1.251562 7.014515,5.461562 6.381362,10.101875 -0.649138,4.75875 -3.887305,7.264688 -8.404316,8.2875 -1.613598,0.365312 -3.301796,0.522188 -4.959903,0.551875 -4.2092105,0.07563 -8.420615,0.02531 -12.6310791,0.02531 H 0.26235081 Z M 6.8424352,31.787812 c 0.242604,0.02125 0.3877275,0.04531 0.5325377,0.04469 2.1762266,-0.0066 4.3549611,0.03844 6.5280531,-0.04875 1.08827,-0.04344 2.200362,-0.216563 3.242869,-0.5275 2.617866,-0.780625 3.62997,-2.435313 3.494563,-5.45125 -0.09372,-2.080938 -1.476311,-3.715 -3.988861,-3.971563 -3.187703,-0.325312 -6.415527,-0.259062 -9.6264252,-0.356875 -0.047016,-0.0016 -0.0956,0.05594 -0.1827366,0.110625 v 10.200625 z m 0.0047,-16.011562 c 2.0489693,0 4.0108018,0.0047 5.9729468,-0.0028 C 13.35607,15.77125 13.900518,15.785 14.42616,15.7 15.889307,15.462813 17.291646,15.0425 18.26833,13.82875 19.771911,11.960625 19.644967,7.9646875 15.683376,7.0303125 12.776516,6.3446875 9.8270283,6.74 6.8471368,6.6375 v 9.13875 z"
             id="Fill-1" />
          <path
             d="m 241.36808,16.3875 v -3.62 h 5.9485 v 0.910313 c 0,7.294687 0.0577,14.59 -0.0389,21.883437 -0.0254,1.902812 -0.33476,3.854375 -0.85288,5.688125 -1.38322,4.89625 -4.87057,7.56625 -9.79255,8.311875 -3.59267,0.544062 -7.1938,0.382188 -10.67708,-0.84625 -1.91199,-0.674063 -3.92586,-1.8775 -5.00159,-3.0225 1.21584,-1.65375 2.44297,-3.3225 3.70927,-5.045 0.51436,0.4075 0.9864,0.80125 1.47851,1.16875 3.03443,2.26625 6.42085,2.9025 10.069,2.0075 2.64702,-0.649063 4.37628,-2.82625 4.65179,-5.68625 0.1188,-1.233125 0.16393,-2.473125 0.2542,-3.889375 -0.75508,0.650937 -1.3105,1.220937 -1.95211,1.668125 -4.05688,2.828125 -10.55014,2.42125 -14.26098,-0.849062 -3.54973,-3.128751 -4.79629,-7.091563 -4.32268,-11.695938 0.34385,-3.345938 1.57881,-6.251562 4.17599,-8.492187 2.40692,-2.07625 5.25767,-2.823125 8.37328,-2.746875 2.72632,0.06688 5.15738,0.880625 7.091,2.884062 0.3592,0.3725 0.66732,0.794063 1.1472,1.37125 z m -0.0696,8.621562 c 0.0235,-4.32375 -2.86924,-7.245937 -7.19537,-7.268749 -4.28381,-0.02219 -7.36275,3.003124 -7.38751,7.259687 -0.0229,3.896875 3.16796,7.111562 7.08065,7.133437 4.53864,0.02531 7.47841,-2.766562 7.50223,-7.124375 z"
             id="Fill-2" />
          <path
             d="m 134.42831,37.403438 c 0,-4.752188 0.01,-9.423438 -0.0107,-14.095001 -0.003,-0.736875 -0.0708,-1.490312 -0.23759,-2.206562 -0.38365,-1.650312 -1.29107,-2.885625 -3.06452,-3.21875 -2.00415,-0.376563 -3.82368,-0.02656 -5.15737,1.656875 -1.0842,1.368438 -1.36943,3.011875 -1.37852,4.699375 -0.0216,4.049062 -0.007,8.098125 -0.007,12.1475 v 1.025937 h -6.26695 v -1.001249 c 0,-4.644688 0.0116,-9.289376 -0.0132,-13.934063 -0.003,-0.672813 -0.0962,-1.370625 -0.29244,-2.012813 -0.69553,-2.274375 -2.83978,-3.23 -5.52629,-2.521249 -2.13172,0.5625 -3.74156,2.333437 -3.82368,4.634999 -0.14857,4.160938 -0.12193,8.328125 -0.16518,12.4925 -0.008,0.76625 -0.001,1.532813 -0.001,2.349688 h -6.20865 v -24.65875 h 5.93815 v 3.375312 c 1.89601,-2.871874 4.55494,-4.075312 7.86238,-4.019999 3.31276,0.05531 5.99645,1.2025 7.50724,4.455937 1.00333,-1.571562 2.18281,-2.8425 3.84029,-3.606562 3.03067,-1.397501 8.31499,-1.21125 10.76265,1.580937 1.38855,1.58375 2.23453,3.445937 2.2969,5.485625 0.16926,5.529687 0.15767,11.064687 0.21722,16.597813 0.003,0.234062 3.1e-4,0.468437 3.1e-4,0.7725 h -6.27165"
             id="Fill-3" />
          <path
             d="m 151.94249,15.605313 c 1.54684,-1.460938 3.18363,-2.548438 5.17054,-3.075625 6.79354,-1.802501 13.37174,2.071562 14.90542,8.907187 0.98169,4.375 0.51655,8.587187 -2.29127,12.275312 -1.9985,2.624375 -4.7408,3.985313 -8.02348,4.3025 -3.11185,0.300625 -6.00523,-0.192812 -8.44569,-2.295312 -0.55761,-0.480625 -1.01367,-1.078438 -1.60106,-1.71375 v 3.4125 h -5.92436 V 0.2178125 h 6.2099 z m 14.20801,9.550312 c 6.3e-4,-4.288125 -3.0664,-7.453125 -7.22828,-7.41 -4.14025,0.04281 -7.21293,2.984687 -7.20258,7.364375 0.0106,4.486562 3.15197,7.3275 7.1985,7.365625 4.12646,0.03875 7.23173,-3.126563 7.23236,-7.32 z"
             id="Fill-4" />
          <path
             d="m 54.917203,12.105938 c 6.49859,-0.02875 11.610512,3.464999 13.25859,8.936249 2.297528,7.626875 -1.808246,15.588438 -10.688994,16.923438 -6.033755,0.907188 -11.791995,-1.7925 -14.294515,-6.7675 -3.677926,-7.310938 -0.341651,-17.2125 9.481929,-18.85125 0.849741,-0.141875 1.715781,-0.185938 2.24299,-0.240937 z m 0.343219,20.375312 c 4.09261,0.01344 7.231416,-3.150313 7.271537,-7.329375 0.03981,-4.177187 -3.15009,-7.42375 -7.282194,-7.411562 -4.081953,0.01187 -7.187221,3.154062 -7.198819,7.283124 -0.0116,4.270625 3.056058,7.443751 7.209476,7.457813 z"
             id="Fill-5" />
          <path
             d="m 84.576323,38.134062 c -3.72557,-0.174687 -7.038963,-1.339062 -9.616709,-4.1 -3.481712,-3.72875 -4.228957,-8.179062 -2.852007,-12.929687 1.337143,-4.6125 4.615431,-7.449375 9.245907,-8.53375 4.850512,-1.13625 9.376299,-0.335313 13.188692,3.090625 2.382785,2.14125 3.603641,4.883437 3.906426,8.057812 0.348861,3.655313 -0.502134,6.960625 -2.89683,9.788125 -2.511296,2.965313 -5.820614,4.321875 -9.643038,4.567188 -0.44352,0.02875 -0.888294,0.04031 -1.332441,0.05969 z M 77.79783,25.147812 c 0.0066,4.185 3.117179,7.337813 7.235491,7.333126 4.088536,-0.0044 7.23988,-3.205938 7.245208,-7.360626 0.0053,-4.150937 -3.14006,-7.360937 -7.231103,-7.379999 -4.158433,-0.01906 -7.256178,3.146249 -7.249596,7.407499 z"
             id="Fill-6" />
          <path
             d="m 200.49369,27.285937 h -18.80933 c -0.32848,1.555625 1.04126,3.841875 2.86549,4.891876 3.08051,1.773437 6.37384,1.014687 10.2461,-2.397188 1.44967,1.095937 2.91031,2.2 4.40887,3.332813 -1.98064,2.465624 -4.38599,4.11125 -7.39378,4.672187 -4.69285,0.874688 -9.01553,0.04781 -12.66367,-3.229688 -2.16651,-1.945937 -3.4043,-4.427187 -3.81929,-7.268125 -0.53097,-3.632187 0.10469,-7.059687 2.37933,-10.031562 2.4646,-3.22 5.82939,-4.8 9.84239,-5.086875 2.8122,-0.20125 5.47896,0.236875 7.82915,1.893438 2.6887,1.894687 4.07537,4.612499 4.60854,7.760312 0.29902,1.76625 0.34008,3.575937 0.5062,5.462812 z m -18.90618,-4.724062 h 12.45524 c -0.11065,-3.627188 -2.60408,-5.857188 -6.36789,-5.759062 -3.59956,0.09406 -5.94473,2.592499 -6.08735,5.759062 z"
             id="Fill-7" />
          <path
             d="m 31.446052,0.215 h 6.200193 V 37.413125 H 31.446052 V 0.215"
             id="Fill-8" />
          <path
             d="M 210.58182,37.434063 H 204.3694 V 12.760625 h 6.17606 v 3.356562 c 1.05035,-0.955312 2.02891,-2.079999 3.22594,-2.879687 1.78317,-1.19125 3.8381,-1.370937 5.92405,-0.872187 0.21691,0.05187 0.53254,0.343437 0.53662,0.529687 0.0404,1.838125 0.0245,3.677187 0.0245,5.593125 -0.74067,-0.13125 -1.37946,-0.251562 -2.02045,-0.356875 -4.28883,-0.70375 -7.64829,2.119687 -7.653,6.43625 -0.005,4.2525 -0.001,8.504687 -0.001,12.866563"
             id="Fill-9" />
        </g>
      </g>
    </g>
  </g>
  <metadata
     id="metadata2020">
    <rdf:RDF>
      <cc:Work
         rdf:about="">
        <dc:title>Imported Layers Copy 2</dc:title>
      </cc:Work>
    </rdf:RDF>
  </metadata>
</svg>
